svg/food/egg_line.svg

<?xml version="1.0" encoding="UTF-8"?>
<svg width="24px" height="24px" viewBox="0 0 24 24" version="1.1" xmlns="http://www.w3.org/2000/svg" xmlns:xlink="http://www.w3.org/1999/xlink">
    <title>egg_line</title>
    <g id="Icon" stroke="none" stroke-width="1" fill="none" fill-rule="evenodd">
        <g id="Food" transform="translate(-278.000000, -250.000000)">
            <g id="egg_line" transform="translate(278.000000, 250.000000)">
                <path d="M24,0 L24,24 L0,24 L0,0 L24,0 Z M12.5935,23.2578 L12.5819,23.2595 L12.5109,23.295 L12.4919,23.2987 L12.4767,23.295 L12.4057,23.2595 C12.3958,23.2564 12.387,23.259 12.3821,23.2649 L12.378,23.2758 L12.3609,23.7031 L12.3659,23.7235 L12.3769,23.7357 L12.4805,23.8097 L12.4953,23.8136 L12.5071,23.8097 L12.6107,23.7357 L12.6233,23.7197 L12.6267,23.7031 L12.6096,23.2758 C12.6076,23.2657 12.601,23.2593 12.5935,23.2578 Z M12.8584,23.1453 L12.8445,23.1473 L12.6598,23.2397 L12.6499,23.2499 L12.6472,23.2611 L12.6651,23.6906 L12.6699,23.7034 L12.6784,23.7105 L12.8793,23.8032 C12.8914,23.8069 12.9022,23.803 12.9078,23.7952 L12.9118,23.7812 L12.8777,23.1665 C12.8753,23.1546 12.8674,23.147 12.8584,23.1453 Z M12.143,23.1473 C12.1332,23.1424 12.1222,23.1453 12.1156,23.1526 L12.1099,23.1665 L12.0758,23.7812 C12.0751,23.7927 12.0828,23.8019 12.0926,23.8046 L12.1083,23.8032 L12.3092,23.7105 L12.3186,23.7024 L12.3225,23.6906 L12.3404,23.2611 L12.3372,23.2485 L12.3278,23.2397 L12.143,23.1473 Z" id="MingCute" fill-rule="nonzero"></path>
                <path d="M8.19904,6.94153 C6.91195,8.81366 6,11.2448 6,13.5 C6,15.5239 6.67129,17.1424 7.72414,18.2478 C8.77541,19.3517 10.2589,20 12,20 C13.7411,20 15.2246,19.3517 16.2759,18.2478 C17.3287,17.1424 18,15.5239 18,13.5 C18,11.2448 17.0881,8.81366 15.801,6.94153 C15.161,6.01075 14.4524,5.2539 13.7619,4.73938 C13.059,4.21569 12.4539,4 12,4 C11.5461,4 10.941,4.21569 10.2381,4.73938 C9.54757,5.2539 8.83895,6.01075 8.19904,6.94153 Z M9.04314,3.13562 C9.93404,2.47181 10.9539,2 12,2 C13.0461,2 14.066,2.47181 14.9569,3.13562 C15.8601,3.8086 16.714,4.73925 17.449,5.80847 C18.9119,7.93634 20,10.7552 20,13.5 C20,15.9761 19.1713,18.1076 17.7241,19.6272 C16.2754,21.1483 14.2589,22 12,22 C9.74115,22 7.72459,21.1483 6.27586,19.6272 C4.82871,18.1076 4,15.9761 4,13.5 C4,10.7552 5.08805,7.93634 6.55096,5.80847 C7.28605,4.73925 8.13993,3.8086 9.04314,3.13562 Z" id="形状" fill="#09244B"></path>
            </g>
        </g>
    </g>
</svg>

<svg xmlns="http://www.w3.org/2000/svg" width="24" height="24"><g fill="none" fill-rule="evenodd"><path d="M24 0v24H0V0h24ZM12.594 23.258l-.012.002-.071.035-.02.004-.014-.004-.071-.036c-.01-.003-.019 0-.024.006l-.004.01-.017.428.005.02.01.013.104.074.015.004.012-.004.104-.074.012-.016.004-.017-.017-.427c-.002-.01-.009-.017-.016-.018Zm.264-.113-.014.002-.184.093-.01.01-.003.011.018.43.005.012.008.008.201.092c.012.004.023 0 .029-.008l.004-.014-.034-.614c-.003-.012-.01-.02-.02-.022Zm-.715.002a.023.023 0 0 0-.027.006l-.006.014-.034.614c0 .012.007.02.017.024l.015-.002.201-.093.01-.008.003-.011.018-.43-.003-.012-.01-.01-.184-.092Z"/><path fill="#09244B" d="M8.199 6.942C6.912 8.814 6 11.245 6 13.5c0 2.024.671 3.642 1.724 4.748C8.775 19.352 10.26 20 12 20c1.741 0 3.225-.648 4.276-1.752C17.329 17.142 18 15.524 18 13.5c0-2.255-.912-4.686-2.199-6.558-.64-.931-1.349-1.688-2.04-2.203C13.06 4.216 12.455 4 12 4c-.454 0-1.059.216-1.762.74-.69.514-1.399 1.27-2.039 2.202Zm.844-3.806C9.934 2.472 10.953 2 12 2c1.046 0 2.066.472 2.957 1.136.903.673 1.757 1.603 2.492 2.672C18.912 7.936 20 10.755 20 13.5c0 2.476-.829 4.608-2.276 6.127C16.275 21.148 14.26 22 12 22c-2.259 0-4.275-.852-5.724-2.373C4.829 18.107 4 15.977 4 13.5c0-2.745 1.088-5.564 2.551-7.692.735-1.069 1.589-2 2.492-2.672Z"/></g></svg>
